assets/images/doc-stats-xp.svg

<svg width="56" height="56" viewBox="0 0 56 56" fill="none" xmlns="http://www.w3.org/2000/svg">
<rect width="56" height="56" rx="28" fill="#F3F4F6"/>
<path d="M27.9996 31.8182C32.7442 31.8182 36.5905 28.1143 36.5905 23.5454C36.5905 18.9765 32.7442 15.2727 27.9996 15.2727C23.255 15.2727 19.4087 18.9765 19.4087 23.5454C19.4087 28.1143 23.255 31.8182 27.9996 31.8182Z" fill="#1C2A3A"/>
<path d="M32.8234 32.5946C33.2434 32.3782 33.727 32.6964 33.727 33.1673V39.3401C33.727 40.4855 32.9252 41.0455 31.9325 40.5746L28.5216 38.9582C28.2288 38.831 27.7706 38.831 27.4779 38.9582L24.067 40.5746C23.0743 41.0328 22.2725 40.4728 22.2725 39.3273L22.2979 33.1673C22.2979 32.6964 22.7943 32.391 23.2016 32.5946C24.6397 33.3201 26.2688 33.7273 27.9997 33.7273C29.7306 33.7273 31.3725 33.3201 32.8234 32.5946Z" fill="#1C2A3A"/>
</svg>

<svg xmlns="http://www.w3.org/2000/svg" width="56" height="56" fill="none" viewBox="0 0 56 56"><rect width="56" height="56" fill="#f3f4f6" rx="28"/><path fill="#1c2a3a" d="M28 31.818c4.744 0 8.59-3.704 8.59-8.273s-3.846-8.272-8.59-8.272c-4.745 0-8.591 3.704-8.591 8.272 0 4.57 3.846 8.273 8.59 8.273M32.823 32.595c.42-.217.904.101.904.572v6.173c0 1.145-.802 1.705-1.794 1.235l-3.411-1.617a1.48 1.48 0 0 0-1.044 0l-3.411 1.617c-.993.458-1.794-.102-1.794-1.248l.025-6.16c0-.47.496-.776.904-.572A10.6 10.6 0 0 0 28 33.727c1.73 0 3.372-.407 4.823-1.132"/></svg>
